X: 10
T:Bill Cheatham
M:4/4
L:1/8
Q:100
C:American
R:Reel
K:A
cd|:"A"ecea "D"fdfa|"E"gefg "A"a2 cd|ecea "D"fdef|edca "E"B2 cd|!
"A"ecea "D"fdfa|"E"gefg "A"a2 e2|"A"agae faed|[1"E"cABc "A"A2 cd:|[2"E"c
ABc "A"A2 AA||:
"A"E2 [c2e2] [c2e2] AB|cBAc BAFE|"D"D2 [d2f2][d2f2] ef|afed cBAF|"A"E2 [
A2e2][A2e2] AB|!
cBAc BABc|"D"dcde fgaf|[1"E"edcB "A"A2 AF|[2"E"edcB "A"A2 ee:||!
"Var"ec'ae "D"faec|"E"fecB "A"AFE2|E-FAB- "D"cAB=c-|"A"^c2A2 "E"B2 ee|!
"A"ec'ae "D"faec|"E"fecB "A"AFED|E=F-^FA "D"B=c-^cd|[1"E"ef-=g^g "A"a2 e
e:|[2"E"ef-=g^g "A"a2 [Aa][Aa]||!
"A"EFAB {B}[c2e2][ce][ce]|cBAc BAFE|"D"D-FAc {c}[D2d2] ef|afed cAB-c|!
"A"E-FAB {B}[c2e2]AB|cBAc BABc|"D"dcde fgaf|[1"E"edcB "A"A2 AA:|[2"E"edc
B "A"A4||
